frontend/src/assets/apply/acceptances-release.svg

<svg width="136" height="136" viewBox="0 0 136 136" fill="none" xmlns="http://www.w3.org/2000/svg">
<g filter="url(#filter0_d)">
<rect x="4" y="4" width="128" height="128" rx="15" fill="white"/>
</g>
<path d="M4 19C4 10.7157 10.7157 4 19 4H117C125.284 4 132 10.7157 132 19V40H4V19Z" fill="#F44343"/>
<path d="M45.5708 14.4545V29H48.5538V19.4972H48.6745L52.4387 28.929H54.47L58.2342 19.5327H58.3549V29H61.3379V14.4545H57.5453L53.5396 24.2273H53.3691L49.3635 14.4545H45.5708ZM66.3787 29L67.4583 25.6832H72.7069L73.7864 29H77.0819L72.0676 14.4545H68.1046L63.0833 29H66.3787ZM68.2395 23.2827L70.0293 17.7784H70.1429L71.9327 23.2827H68.2395ZM78.8326 29H81.9078V23.8438H84.1522L86.9078 29H90.3027L87.2132 23.3466C88.8681 22.6364 89.7843 21.1946 89.7843 19.206C89.7843 16.3153 87.8738 14.4545 84.5712 14.4545H78.8326V29ZM81.9078 21.3722V16.9688H83.9817C85.7573 16.9688 86.6167 17.7571 86.6167 19.206C86.6167 20.6477 85.7573 21.3722 83.9959 21.3722H81.9078Z" fill="white"/>
<path d="M60.9658 98.344C63.5258 98.344 64.8058 99.432 64.8058 101.608C64.8058 103.869 63.5258 105 60.9658 105H36.6458C35.5364 105 34.6618 104.68 34.0218 104.04C33.3818 103.357 33.0618 102.525 33.0618 101.544C33.0618 100.264 33.5524 99.112 34.5338 98.088L49.1258 82.408C50.9178 80.4453 52.2191 78.6533 53.0298 77.032C53.8831 75.368 54.3098 73.7253 54.3098 72.104C54.3098 70.0987 53.7338 68.5627 52.5818 67.496C51.4298 66.4293 49.7871 65.896 47.6538 65.896C45.9044 65.896 44.1978 66.2373 42.5338 66.92C40.9124 67.56 39.2698 68.456 37.6058 69.608C37.1791 69.9067 36.7524 70.1627 36.3258 70.376C35.8991 70.5467 35.4724 70.632 35.0458 70.632C34.3204 70.632 33.6804 70.2907 33.1258 69.608C32.6138 68.9253 32.3578 68.1147 32.3578 67.176C32.3578 66.536 32.4644 65.9813 32.6778 65.512C32.9338 65.0427 33.3178 64.5947 33.8298 64.168C35.7071 62.6747 37.9044 61.5013 40.4218 60.648C42.9391 59.752 45.4564 59.304 47.9738 59.304C52.3684 59.304 55.8671 60.4133 58.4698 62.632C61.1151 64.8507 62.4378 67.8373 62.4378 71.592C62.4378 74.1947 61.8831 76.648 60.7738 78.952C59.6644 81.2133 57.7871 83.752 55.1418 86.568L44.0698 98.344H60.9658ZM85.2593 59.304C90.9766 59.304 95.3713 61.2453 98.4433 65.128C101.558 68.968 103.115 74.472 103.115 81.64C103.115 86.5467 102.39 90.8133 100.939 94.44C99.4886 98.024 97.3979 100.776 94.6673 102.696C91.9793 104.616 88.8006 105.576 85.1313 105.576C82.6993 105.576 80.2459 105.149 77.7713 104.296C75.3393 103.4 73.2699 102.205 71.5633 100.712C71.0086 100.243 70.6033 99.7947 70.3473 99.368C70.1339 98.8987 70.0273 98.344 70.0273 97.704C70.0273 96.7653 70.2833 95.976 70.7953 95.336C71.3499 94.6533 71.9899 94.312 72.7153 94.312C73.1419 94.312 73.5473 94.3973 73.9313 94.568C74.3153 94.696 74.7846 94.9307 75.3393 95.272C78.8806 97.7467 82.0379 98.984 84.8113 98.984C87.9259 98.984 90.3793 97.5547 92.1713 94.696C93.9633 91.7947 94.9019 87.7413 94.9873 82.536C94.0059 84.456 92.5339 85.992 90.5713 87.144C88.6086 88.2533 86.4113 88.808 83.9792 88.808C81.2913 88.808 78.9019 88.2107 76.8113 87.016C74.7206 85.7787 73.0779 84.072 71.8833 81.896C70.7313 79.6773 70.1553 77.16 70.1553 74.344C70.1553 71.4427 70.7953 68.8613 72.0753 66.6C73.3979 64.296 75.1899 62.504 77.4513 61.224C79.7553 59.944 82.3579 59.304 85.2593 59.304ZM85.7073 82.28C88.0966 82.28 90.0166 81.5333 91.4673 80.04C92.9606 78.504 93.7073 76.52 93.7073 74.088C93.7073 71.6133 92.9606 69.6293 91.4673 68.136C90.0166 66.6 88.0966 65.832 85.7073 65.832C83.3606 65.832 81.4833 66.6 80.0753 68.136C78.6673 69.6293 77.9633 71.6133 77.9633 74.088C77.9633 76.5627 78.6673 78.5467 80.0753 80.04C81.4833 81.5333 83.3606 82.28 85.7073 82.28Z" fill="black"/>
<defs>
<filter id="filter0_d" x="0" y="0" width="136" height="136" filterUnits="userSpaceOnUse" color-interpolation-filters="sRGB">
<feFlood flood-opacity="0" result="BackgroundImageFix"/>
<feColorMatrix in="SourceAlpha" type="matrix" values="0 0 0 0 0 0 0 0 0 0 0 0 0 0 0 0 0 0 127 0"/>
<feOffset/>
<feGaussianBlur stdDeviation="2"/>
<feColorMatrix type="matrix" values="0 0 0 0 0 0 0 0 0 0 0 0 0 0 0 0 0 0 0.25 0"/>
<feBlend mode="normal" in2="BackgroundImageFix" result="effect1_dropShadow"/>
<feBlend mode="normal" in="SourceGraphic" in2="effect1_dropShadow" result="shape"/>
</filter>
</defs>
</svg>

<svg width="136" height="136" fill="none" xmlns="http://www.w3.org/2000/svg"><g filter="url(#a)"><rect x="4" y="4" width="128" height="128" rx="15" fill="#fff"/></g><path d="M4 19c0-8.284 6.716-15 15-15h98c8.284 0 15 6.716 15 15v21H4V19z" fill="#F44343"/><path d="M45.57 14.454V29h2.984v-9.503h.12l3.765 9.432h2.031l3.764-9.396h.12V29h2.984V14.454h-3.793l-4.005 9.773h-.17l-4.006-9.773H45.57zM66.38 29l1.08-3.317h5.248L73.787 29h3.295l-5.014-14.546h-3.963L63.083 29h3.296zm1.86-5.717 1.79-5.505h.114l1.79 5.505h-3.694zM78.834 29h3.075v-5.156h2.244L86.908 29h3.395l-3.09-5.653c1.655-.71 2.571-2.152 2.571-4.141 0-2.89-1.91-4.752-5.213-4.752h-5.738V29zm3.075-7.628V16.97h2.074c1.775 0 2.635.788 2.635 2.237 0 1.442-.86 2.166-2.621 2.166h-2.088z" fill="#fff"/><path d="M60.966 98.344c2.56 0 3.84 1.088 3.84 3.264 0 2.261-1.28 3.392-3.84 3.392h-24.32c-1.11 0-1.984-.32-2.624-.96-.64-.683-.96-1.515-.96-2.496 0-1.28.49-2.432 1.472-3.456l14.592-15.68c1.792-1.963 3.093-3.755 3.904-5.376.853-1.664 1.28-3.307 1.28-4.928 0-2.005-.576-3.541-1.728-4.608-1.152-1.067-2.795-1.6-4.928-1.6-1.75 0-3.456.341-5.12 1.024-1.622.64-3.264 1.536-4.928 2.688-.427.299-.854.555-1.28.768-.427.17-.854.256-1.28.256-.726 0-1.366-.341-1.92-1.024-.512-.683-.768-1.493-.768-2.432 0-.64.106-1.195.32-1.664.256-.47.64-.917 1.152-1.344 1.877-1.493 4.074-2.667 6.592-3.52 2.517-.896 5.034-1.344 7.552-1.344 4.394 0 7.893 1.11 10.496 3.328 2.645 2.219 3.968 5.205 3.968 8.96 0 2.603-.555 5.056-1.664 7.36-1.11 2.261-2.987 4.8-5.632 7.616L44.07 98.344h16.896zm24.293-39.04c5.718 0 10.112 1.941 13.184 5.824 3.115 3.84 4.672 9.344 4.672 16.512 0 4.907-.725 9.173-2.176 12.8-1.45 3.584-3.541 6.336-6.272 8.256-2.688 1.92-5.866 2.88-9.536 2.88-2.432 0-4.885-.427-7.36-1.28-2.432-.896-4.501-2.091-6.208-3.584-.554-.469-.96-.917-1.216-1.344-.213-.47-.32-1.024-.32-1.664 0-.939.256-1.728.768-2.368.555-.683 1.195-1.024 1.92-1.024.427 0 .832.085 1.216.256.384.128.854.363 1.408.704 3.542 2.475 6.699 3.712 9.472 3.712 3.115 0 5.568-1.43 7.36-4.288 1.792-2.901 2.73-6.955 2.816-12.16-.981 1.92-2.453 3.456-4.416 4.608-1.962 1.11-4.16 1.664-6.592 1.664-2.688 0-5.077-.597-7.168-1.792-2.09-1.237-3.733-2.944-4.928-5.12-1.152-2.219-1.728-4.736-1.728-7.552 0-2.901.64-5.483 1.92-7.744 1.323-2.304 3.115-4.096 5.376-5.376 2.304-1.28 4.907-1.92 7.808-1.92zm.448 22.976c2.39 0 4.31-.747 5.76-2.24 1.494-1.536 2.24-3.52 2.24-5.952 0-2.475-.746-4.459-2.24-5.952-1.45-1.536-3.37-2.304-5.76-2.304-2.346 0-4.224.768-5.632 2.304-1.408 1.493-2.112 3.477-2.112 5.952s.704 4.459 2.112 5.952c1.408 1.493 3.286 2.24 5.632 2.24z" fill="#000"/><defs><filter id="a" x="0" y="0" width="136" height="136" filterUnits="userSpaceOnUse" color-interpolation-filters="sRGB"><feFlood flood-opacity="0" result="BackgroundImageFix"/><feColorMatrix in="SourceAlpha" values="0 0 0 0 0 0 0 0 0 0 0 0 0 0 0 0 0 0 127 0"/><feOffset/><feGaussianBlur stdDeviation="2"/><feColorMatrix values="0 0 0 0 0 0 0 0 0 0 0 0 0 0 0 0 0 0 0.25 0"/><feBlend in2="BackgroundImageFix" result="effect1_dropShadow"/><feBlend in="SourceGraphic" in2="effect1_dropShadow" result="shape"/></filter></defs></svg>
